trunk/WorldWind/resources/milstd2525/icons/ems/ehoaal---------.svg

<?xml version="1.0" encoding="UTF-8" standalone="no"?>
<!--
Copyright (C) 2012 United States Government as represented by the Administrator of the
National Aeronautics and Space Administration.
All Rights Reserved.
-->

<!--
MIL-STD-2525 tactical symbol icon image. During icon composition this image is multiplied by the desired frame color 
(e.g. black), then drawn on top of the frame and fill.
-->

<svg
   xmlns:dc="http://purl.org/dc/elements/1.1/"
   xmlns:cc="http://creativecommons.org/ns#"
   xmlns:rdf="http://www.w3.org/1999/02/22-rdf-syntax-ns#"
   xmlns:svg="http://www.w3.org/2000/svg"
   xmlns="http://www.w3.org/2000/svg"
   xmlns:sodipodi="http://sodipodi.sourceforge.net/DTD/sodipodi-0.dtd"
   xmlns:inkscape="http://www.inkscape.org/namespaces/inkscape"
   height="400px"
   viewBox="0 0 400 400"
   width="400px"
   id="svg2"
   version="1.1"
   inkscape:version="0.48.2 r9819"
   sodipodi:docname="ehoaal---------.svg">
  <metadata
     id="metadata12">
    <rdf:RDF>
      <cc:Work
         rdf:about="">
        <dc:format>image/svg+xml</dc:format>
        <dc:type
           rdf:resource="http://purl.org/dc/dcmitype/StillImage" />
      </cc:Work>
    </rdf:RDF>
  </metadata>
  <defs
     id="defs10" />
  <sodipodi:namedview
     pagecolor="#ffffff"
     bordercolor="#666666"
     borderopacity="1"
     objecttolerance="10"
     gridtolerance="10"
     guidetolerance="10"
     inkscape:pageopacity="0"
     inkscape:pageshadow="2"
     inkscape:window-width="640"
     inkscape:window-height="480"
     id="namedview8"
     showgrid="false"
     inkscape:zoom="0.59"
     inkscape:cx="200"
     inkscape:cy="200"
     inkscape:window-x="179"
     inkscape:window-y="74"
     inkscape:window-maximized="0"
     inkscape:current-layer="svg2" />
  <g
     transform="matrix(100,0,0,100,80,74)"
     id="g4"
     style="stroke:#000000;stroke-width:0.06;stroke-miterlimit:4;stroke-opacity:1;stroke-dasharray:0.12, 0.06;stroke-dashoffset:0">
    <path
       inkscape:connector-curvature="0"
       d="m 0.83763,0.60552 0.32943,0 c 0.07627,0 0.15457,0.094898 0.15128,0.181531 -0.0034,0.089744 -0.07288,0.165543 -0.16305,0.165543 l -0.31766,0 z m -0.217657,1.14711 0.217657,0 0,-0.55885 0.058823,0 c 0.01426,0 0.341197,0.40266 0.341197,0.42943 0,0.01548 -0.34139,0.41603 -0.376492,0.48238 L 1.12351,2.10356 1.38068,1.79828 1.62001,2.10559 1.89246,2.10415 1.5121,1.62155 1.87296,1.17614 1.6176,1.17393 1.3753,1.44351 1.19058,1.19378 C 1.40361,1.14416 1.54354,1.02316 1.54354,0.764355 c 0,-0.201791 -0.17627,-0.38237 -0.37648,-0.38237 l -0.547087,0 z"
       style="fill:#ffffff;stroke:#000000;stroke-width:0.06;stroke-miterlimit:4;stroke-opacity:1;stroke-dasharray:0.12, 0.06;stroke-dashoffset:0"
       id="path6" />
  </g>
</svg>

<?xml version="1.0"?>
<!--
Copyright (C) 2012 United States Government as represented by the Administrator of the
National Aeronautics and Space Administration.
All Rights Reserved.
-->

<!DOCTYPE svg PUBLIC "-//W3C//DTD SVG 1.1//EN" "http://www.w3.org/Graphics/SVG/1.1/DTD/svg11.dtd" >
<!--
MIL-STD-2525 tactical symbol icon image. During icon composition this image is multiplied by the desired frame color 
(e.g. black), then drawn on top of the frame and fill.
-->
<svg xmlns:xlink="http://www.w3.org/1999/xlink" height="400px" viewBox="0 0 400 400" width="400px"><g transform="scale(100) translate(0.8 0.74)"><path d="M0.83763 0.60552 L1.16706 0.60552 C1.24333 0.60552 1.32163 0.700418 1.31834 0.787051     C1.31494 0.876795 1.24546 0.952594 1.15529 0.952594 L0.83763 0.952594 zM0.619973     1.75263 L0.83763 1.75263 L0.83763 1.19378 L0.896453 1.19378 C0.910713     1.19378 1.23765 1.59644 1.23765 1.62321 C1.23765 1.63869 0.89626 2.03924     0.861158 2.10559 L1.12351 2.10356 L1.38068 1.79828 L1.62001 2.10559 L1.89246     2.10415 L1.5121 1.62155 L1.87296 1.17614 L1.6176 1.17393 L1.3753 1.44351 L1.19058     1.19378 C1.40361 1.14416 1.54354 1.02316 1.54354 0.764355 C1.54354 0.562564     1.36727 0.381985 1.16706 0.381985 L0.619973 0.381985 z" style="fill:rgb(255,255,255)"/></g></svg>
